!!!OTL: Anrufung Gottes
!!!ARE: Europa, Mitteleuropa, Deutschland
!!!SCT: A0593
!!!YEM: Copyright 1995, estate of Helmut Schaffrath.
**kern
*ICvox
*Ivox
*M4/2
*k[f#]
*G:
{0g
=1
1cc
1a
=2
1b
2cc
[2dd
=3
2dd]
2cc
1b
=4
0a}
=5
{1r
1g
=6
1a
1b
=7
1g
2g
2cc
=8
4dd
4b
2cc
1a
=9
0g}
=10
{0g
=11
1cc
1a
=12
1b
2cc
[2dd
=13
2dd]
2cc
1b
=14
0a}
=15
{1r
1g
=16
1a
1b
=17
1g
2g
2cc
=18
4dd
4b
2cc
1a
=19
0g}
=20
{1r
1g
=21
1a
1b
=22
0cc
=23
1r
1cc
=24
1b
1cc
=25
0dd}
=26
{1r
1ee
=27
1.ee
4dd
4cc
=28
2b
2a
1b
=29
0a}
=30
{1r
1g
=31
1a
1b
=32
1g
2g
2cc
=33
4dd
4b
2cc
1a
=34
0g}
=35
{1r
1g
=36
1a
1b
=37
1g
2g
2cc
=38
4dd
4b
2cc
1a
=39
0g}
==
!!!AGN: Romanze, Ballade, Lied, religioeses Lied
!! Triller 1555
!!!ONB: ESAC (Essen Associative Code) Database: ALTDEU
!!!AMT: simple quadruple
!!!AIN: vox
!!!EED: Helmut Schaffrath
!!!EEV: 1.0
*-
